!!!OTL: Hao cao ge
!!!ARE: Asia, China,ÿGansu, Kangxian
!! I, 139
!!!SCT: C1421
!!!YEM: Copyright 1995, estate of Helmut Schaffrath.
**kern
*ICvox
*Ivox
!! Mixed meters:  2/4; 3/4
*M2/4
*k[b-]
*F:
{8cc
16cc
16dd
4ff
=1
16gg
16aa
16gg
16ff
16dd
8.cc
=2
4ff
8cc
8cc
=3
16b-
8.g
4r}
=4
*M3/4
{8.cc
16dd
2gg
=5
*M2/4
16ff
16gg
16ff
16dd
4cc
=6
4dd
8.ff
16dd
=7
8cc
16cc
16b-
4g}
=8
{16cc
16dd
8gg
8.ff
16dd
=9
8cc
8dd
8cc
16cc
16dd
=10
8.ff
16gg
8dd
8dd
=11
4cc
4cc}
==
!!!AGN: Shange, Tiange. Nongtian laodong chang
!!!ONB: ESAC (Essen Associative Code) Database: HUANG
!!!AMT: irregular
!!!AIN: vox
!!!EED: Helmut Schaffrath
!!!EEV: 1.0
*-
